frontend/static/not-found.svg

<svg xmlns="http://www.w3.org/2000/svg" width="1024" height="1024" fill="#fff"><path d="M611.186 119.101a39.59 39.59 0 0 1 5.358.016c5.153.402 10.907 3.34 13.652 7.412 20.996 31.15 30.708 114.813 27.296 149.196 4.02 6.927 8.164 13.565 11.694 20.773 26.768 54.656 27.05 110.405-2.525 163.668 2.534 2.701 8.387 6.904 11.494 9.306 5.22 3.987 10.303 8.152 15.238 12.487a341.03 341.03 0 0 1 60.756 68.536c36.775 55.478 58.434 122.699 60.33 189.265.894 31.358-11.152 129.119-38.729 146.525-2.422 1.513-5.1 2.572-7.902 3.124-13.222 2.534-80.636 5.595-90.958 2.963-2.767-.706-5.859-2.044-7.274-4.697-4.856-9.11 6.627-17.993 8.841-25.131.538-1.737.759-3.697-.362-5.273-.918-1.292-2.617-2.22-4.182-2.386-2.728-.291-5.323 1.482-7.279 3.182-10.528 9.153-12.943 20.706-13.786 33.912-4.109.055-8.525.047-12.041-2.28-12.53-8.29-9.031-25.546-2.665-36.061 10.268-16.961 25.752-23.914 45.125-21.752 5.733.64 13.232 1.199 18.911-.07 2.084-.541 3.113-1.034 4.195-2.931.752-9.095-14.335-11.492-20.839-12.22-23.868-2.671-43.064 7.998-60.936 22.619 6.242-14.446 15.98-24.815 25.003-37.658 22.996-32.768 36.601-71.004 41.062-110.688 2.422-21.539-10.443-35.005-16.442-7.602-1.814 8.287-1.625 18.063-3.349 26.639-6.977 34.7-22.904 66.731-43.851 95.076-28.511 38.58-66.313 79.173-115.818 88.035-16.856 3.018-38.797-.531-24.885-22.675 2.022-3.219 5.401-7.874 4.622-11.968-5.328-11.994-17.717 1.832-21.188 8.206-5.317 9.93-3.873 15.372-1.353 24.433-5.836 2.65-12.929 3.436-18.965 1.011-3.675-1.47-6.602-4.359-8.12-8.014-5.969-14.053 4.743-23.967 9.164-35.022-1.311-2.629-2.517-5.806-5.977-5.467-4.006.392-7.898 2.594-10.47 5.638-8.567 10.139-9.72 23.323-9.01 36.052-7.916.007-15.185-1.648-18.095-9.978-6.99-20.152 11.843-39.585 26.281-50.819 15.467-12.034 35.634-11.471 53.458-17.85 11.544-4.131 15.431-10.488 23.157-19.307 10.834-12.365 20.758-25.052 28.907-39.365 10.054-17.675 17.567-35.872 25.201-54.754 2.078-5.14 12.168-26.755-3.497-22.427-6.405 1.769-10.916 13.044-13.19 19.132-10.242 27.409-23.509 54.905-42.361 77.504-7.574 9.053-16.332 19.486-27.363 24.19-5.75-2.744-13.467-10.023-18.211-14.673-28.923-28.357-42.779-56.67-57.514-93.383-1.892-4.424-9.152-21.149-15.357-7.482-2.276 5.012 1.885 17.01 3.653 22.179 2.578 7.536 7.531 15.868 11.668 23.075-24.983 31.495-64.425 57.305-104.995 42.654-32.876-11.872-78.972-53.075-93.983-84.333 5.49-11.652 12.582-23.048 20.068-33.528 4.917-7.533 11.087-6.206 19.179-4.931 18.036 2.844 23.938-2.869 38.123-12.037 16.555 10.137 30.937 26.974 46.35 38.559 2.643 1.987 7.346-2.554 7.318-4.777-.113-9.212-11.568-26.902-15.85-34.035 23.307-26.931 30.564-40.001 47.741-70.77 14.441 8.139 30.952 15.72 47.308 20.192 78.599 21.49 173.071-.951 228.915-61.684 2.269-2.468 5.737-6.64 6.609-9.827-2.541-16.757-16.983 2.319-22.264 6.774-6.986 5.819-14.222 11.33-21.687 16.519a237.39 237.39 0 0 1-117.086 40.07c-51.77 3.344-101.927-12.219-141.036-46.629 23.854-7.404 44.355-17.988 62.381-35.718 5.081-4.998 9.996-11.218 15.042-16.581.674 5.089 1.231 10.193 1.672 15.308-2.552 4.581-15.111 17.787-10.207 22.311 7.57 6.982 15.265-2.911 20.436-7.821 6.65 3.896 25.004 18.988 33.626 14.025 12.326-7.097-10.801-15.338-15.198-17.883-2.914-1.65-5.505-3.814-7.647-6.387-21.592-26.419 42.976-60.755-1.689-60.845 2.546-6.049 4.418-14.909 5.664-21.52a141.64 141.64 0 0 0-22.445-106.945c-23.576-34.41-57.368-50.401-97.188-57.787 9.196-8.949 27.201-19.129 32.343-30.987-5.123-19.084-24.036-38.848-36.576-54.023-3.156-3.819-9.297-10.923-14.451-10.709-.868.386-1.315.646-1.886 1.441-5.961 8.303-3.022 79.694-.316 92.791-22.227 5.32-19.43-1.206-20.807-20.236-1.654-22.848-2.831-70.975 5.339-91.2 15.757-39.009 76.254 31.539 89.354 45.308 7.254 7.031 14.352 19.398 22.629 23.155 26.3-7.254 75.821-7.874 101.719-.038 4.994-3.523 14.369-13.476 19.264-18.126 20.615-19.581 41.592-41.699 66.348-55.967 5.425-3.126 11.309-4.841 17.311-6.004zm-22.925 123.323c5.209 3.582 25.79 19.39 29.896 20.373 6.613-2.019 6.85-15.044 7.085-20.88 1.08-26.89-.249-55.574-7.794-81.519-1.748-6.013-4.832-11.988-11.818-11.312-16.878 6.387-47.65 41.863-56.419 58.335-1.205 2.262-2.313 7.094-1.155 9.51 3.16 6.595 17.764 12.572 24.145 16.091 5.443 2.977 10.799 6.113 16.06 9.402zm-56.975 158.71c6.871-12.738 5.854-24.102.899-37.25 4.353.332 16.041 2.941 20.306 4.796 10.033 4.362 22.351-1.505 14.229-11.765-6.407-8.094-27.97-10.655-38.461-9.749-11.831 1.548-22.921 5.693-31.054 15.544-13.121 15.894-5.052 51.843 19.684 48.953 5.567-.651 11.266-5.758 14.397-10.529zm28.589 50.309c13.996-.103 34.916-1.491 48.216 1.878 13.862 3.51 21.501-5.781 14.449-10.725-5.119-3.588-37.427-3.644-46.27-3.366l-41.404.891c-6.813.194-14.15-.158-20.863 1.007-1.452.252-2.753.638-3.819 1.712-1.148 1.158-1.863 2.924-1.591 4.567.247 1.485 1.344 2.735 2.645 3.418 5.363 2.813 40.429.624 48.637.618zm41.139 48.487c12.122-9.556-4.171-14.161-11.536-16.167-22.671-6.173-51.049-13.877-74.717-13.441-1.266.028-2.53.12-3.787.274-1.666 1.068-3.664 2.521-4.056 4.567-1.725 9.003 22.953 8.802 29.726 9.857a305.49 305.49 0 0 1 36.103 8.008c7.744 2.188 20.674 7.383 28.267 6.902zm-296.03-241.886c70.017-3.124 129.302 51.117 132.402 121.134s-51.159 129.286-121.178 132.363c-69.986 3.075-129.22-51.154-132.319-121.139S235 261.165 304.984 258.044zM318.225 485.6c55.918-4.23 97.776-53.059 93.411-108.967s-53.296-97.648-109.193-93.148c-55.707 4.486-97.274 53.212-92.923 108.93s52.977 97.401 108.705 93.185zm-13.652-186.436c26.389-2.463 49.667 6.473 68.085 25.455a85.18 85.18 0 0 1 24.376 62.184c-.791 36.433-26.261 76.208-65.097 80.066-3.116.31-7.088.078-10.277-.007 4.279-2.775 8.727-4.586 13.466-7.774 1.561-1.384 3.115-3.064 4.577-4.573-25.212-11.481-40.329-31.095-45.416-58.463-3.707-21.053-.295-42.741 9.697-61.639 2.364-4.404 5.977-9.498 8.841-13.704-12.213-7.403-39.021 2.582-50.8 8.355-1.225.6-1.084.896-2.702 1.229-1.478-3.555.176-8.594 2.588-11.365 10.672-12.26 27.108-17.545 42.662-19.764zm39.432 116.114c29.302-9.896 28.595-52.973 3.78-67.396-3.712-2.158-8.431-2.054-12.585-1.755-34.953 12.25-26.952 74.569 8.805 69.151zm-109.999-66.889c1.945.037 2.931.079 4.672.777 1.02.41 2.509 2.346 2.369 2.784-2.235 6.962-5.357 15.395-6.894 22.294-3.329 14.944.588 38.655 6.209 52.769l.332.82-.393.719c-13.262-13.507-17.419-41.207-15.06-59.257.988-7.558 2.447-15.944 8.765-20.906zm616.448-24.242c18.524-1.752 34.656 3.595 36.998 24.602 2.702 24.232-21.571 37.201-31.859 56.11-23.266 42.763.17 91.317 18.804 130.986 23.711 50.35 38.709 100.922 33.744 157.121-5.294 59.938-29.299 106.597-75.41 145.135-6.11 5.193-14.294 11.257-21.237 14.994 12.746-36.764 18.492-72.291 18.88-110.699.021-2.088 3.926-11.922 4.719-14.833 15.008-55.485-.829-121.205-25.93-172.166-29.993-60.895-54.364-129.989-13.01-193.295 12.572-19.245 31.028-33.546 54.301-37.955zM194.123 539.664c2.432-.32 6.33-.222 8.659.261a27.5 27.5 0 0 1 8.948 3.624c5.246 3.24 22.123 17.883 25.263 22.968a21.16 21.16 0 0 1 2.413 16.735c-5.367 19.782-21.281 6.048-33.188.395-19.573-9.293-29.836 2.623-8.253 12.839 12.558 5.944 25.345 14.05 20.962 29.895a17.63 17.63 0 0 1-8.89 10.882c-10.344 5.458-24.673-4.988-36.218-8.71l-.807-.255a18.27 18.27 0 0 0-2.334-.234c-2.542-.073-6.623 2.819-5.826 5.746 1.225 4.291 6.679 7.488 10.497 9.531 6.54 3.501 16.538 10.865 10.007 19.203-10.705 13.238-28.316 3.792-38.939-3.778-28.383-20.224-13.207-65.871 4.645-87.979 9.706-12.02 26.56-29.01 43.061-31.123zm-48.804 136.352c10.763 5.414 26.094 12.529 38.303 10.383-7.638 9.841-12.644 25.722-20.885 34.672-4.182 3.575-9.026 5.657-14.464 5.53-11.492-.27-19.08-7.248-18.586-18.917.416-9.816 4.411-15.263 9.501-23.228 1.911-2.991 3.589-6.031 6.131-8.44zm113.558-110.382c18.4 8.545 22.686 59.006-9.871 59.991-.878-.083-1.752-.204-2.62-.364-4.547-.884-13.661-4.507-10.349-10.797 1.901-3.928 5.847-7.499 7.87-11.222 6.38-11.744 12.547-24.477 14.97-37.608zm-18.117-59.493c2.699 1.119 9.051 5.211 12.023 6.76 6.106 3.18 11.981 6.008 18.341 8.687-2.952 7-12.979 22.645-17.166 30.555l-1.072 1.536c-2.492-.259-24.031-16.697-27.931-19.412 4.846-9.41 10.53-18.894 15.805-28.126z"/></svg>

<?xml version="1.0" encoding="utf-8" ?><svg xmlns="http://www.w3.org/2000/svg" xmlns:xlink="http://www.w3.org/1999/xlink" width="1024" height="1024" viewBox="0 0 1024 1024"><path fill="#ffffff" d="M611.186 119.101C612.97 118.985 614.76 118.991 616.544 119.117C621.697 119.519 627.451 122.457 630.196 126.529C651.192 157.679 660.904 241.342 657.492 275.725C661.512 282.652 665.656 289.29 669.186 296.498C695.954 351.154 696.236 406.903 666.661 460.166C669.195 462.867 675.048 467.07 678.155 469.472C683.375 473.459 688.458 477.624 693.393 481.959C716.635 501.969 737.071 525.022 754.149 550.495C790.924 605.973 812.583 673.194 814.479 739.76C815.373 771.118 803.327 868.879 775.75 886.285C773.328 887.798 770.65 888.857 767.848 889.409C754.626 891.943 687.212 895.004 676.89 892.372C674.123 891.666 671.031 890.328 669.616 887.675C664.76 878.565 676.243 869.682 678.457 862.544C678.995 860.807 679.216 858.847 678.095 857.271C677.177 855.979 675.478 855.051 673.913 854.885C671.185 854.594 668.59 856.367 666.634 858.067C656.106 867.22 653.691 878.773 652.848 891.979C648.739 892.034 644.323 892.026 640.807 889.699C628.277 881.409 631.776 864.153 638.142 853.638C648.41 836.677 663.894 829.724 683.267 831.886C689 832.526 696.499 833.085 702.178 831.816C704.262 831.275 705.291 830.782 706.373 828.885C707.125 819.79 692.038 817.393 685.534 816.665C661.666 813.994 642.47 824.663 624.598 839.284C630.84 824.838 640.578 814.469 649.601 801.626C672.597 768.858 686.202 730.622 690.663 690.938C693.085 669.399 680.22 655.933 674.221 683.336C672.407 691.623 672.596 701.399 670.872 709.975C663.895 744.675 647.968 776.706 627.021 805.051C598.51 843.631 560.708 884.224 511.203 893.086C494.347 896.104 472.406 892.555 486.318 870.411C488.34 867.192 491.719 862.537 490.94 858.443C485.612 846.449 473.223 860.275 469.752 866.649C464.435 876.579 465.879 882.021 468.399 891.082C462.563 893.732 455.47 894.518 449.434 892.093C445.759 890.623 442.832 887.734 441.314 884.079C435.345 870.026 446.057 860.112 450.478 849.057C449.167 846.428 447.961 843.251 444.501 843.59C440.495 843.982 436.603 846.184 434.031 849.228C425.464 859.367 424.311 872.551 425.021 885.28C417.105 885.287 409.836 883.632 406.926 875.302C399.936 855.15 418.769 835.717 433.207 824.483C448.674 812.449 468.841 813.012 486.665 806.633C498.209 802.502 502.096 796.145 509.822 787.326C520.656 774.961 530.58 762.274 538.729 747.961C548.783 730.286 556.296 712.089 563.93 693.207C566.008 688.067 576.098 666.452 560.433 670.78C554.028 672.549 549.517 683.824 547.243 689.912C537.001 717.321 523.734 744.817 504.882 767.416C497.308 776.469 488.55 786.902 477.519 791.606C471.769 788.862 464.052 781.583 459.308 776.933C430.385 748.576 416.529 720.263 401.794 683.55C399.902 679.126 392.642 662.401 386.437 676.068C384.161 681.08 388.322 693.078 390.09 698.247C392.668 705.783 397.621 714.115 401.758 721.322C376.775 752.817 337.333 778.627 296.763 763.976C263.887 752.104 217.791 710.901 202.78 679.643C208.27 667.991 215.362 656.595 222.848 646.115C227.765 638.582 233.935 639.909 242.027 641.184C260.063 644.028 265.965 638.315 280.15 629.147C296.705 639.284 311.087 656.121 326.5 667.706C329.143 669.693 333.846 665.152 333.818 662.929C333.705 653.717 322.25 636.027 317.968 628.894C341.275 601.963 348.532 588.893 365.709 558.124C380.15 566.263 396.661 573.844 413.017 578.316C491.616 599.806 586.088 577.365 641.932 516.632C644.201 514.164 647.669 509.992 648.541 506.805C646 490.048 631.558 509.124 626.277 513.579C619.291 519.398 612.055 524.909 604.59 530.098C569.79 553.572 529.389 567.398 487.504 570.168C435.734 573.512 385.577 557.949 346.468 523.539C370.322 516.135 390.823 505.551 408.849 487.821C413.93 482.823 418.845 476.603 423.891 471.24C424.565 476.329 425.122 481.433 425.563 486.548C423.011 491.129 410.452 504.335 415.356 508.859C422.926 515.841 430.621 505.948 435.792 501.038C442.442 504.934 460.796 520.026 469.418 515.063C481.744 507.966 458.617 499.725 454.22 497.18C451.306 495.53 448.715 493.366 446.573 490.793C424.981 464.374 489.549 430.038 444.884 429.948C447.43 423.899 449.302 415.039 450.548 408.428C457.673 371.212 449.588 332.694 428.103 301.483C404.527 267.073 370.735 251.082 330.915 243.696C340.111 234.747 358.116 224.567 363.258 212.709C358.135 193.625 339.222 173.861 326.682 158.686C323.526 154.867 317.385 147.763 312.231 147.977C311.363 148.363 310.916 148.623 310.345 149.418C304.384 157.721 307.323 229.112 310.029 242.209C287.802 247.529 290.599 241.003 289.222 221.973C287.568 199.125 286.391 150.998 294.561 130.773C310.318 91.764 370.815 162.312 383.915 176.081C391.169 183.112 398.267 195.479 406.544 199.236C432.844 191.982 482.365 191.362 508.263 199.198C513.257 195.675 522.632 185.722 527.527 181.072C548.142 161.491 569.119 139.373 593.875 125.105C599.3 121.979 605.184 120.264 611.186 119.101ZM588.261 242.424C593.47 246.006 614.051 261.814 618.157 262.797C624.77 260.778 625.007 247.753 625.242 241.917C626.322 215.027 624.993 186.343 617.448 160.398C615.7 154.385 612.616 148.41 605.63 149.086C588.752 155.473 557.98 190.949 549.211 207.421C548.006 209.683 546.898 214.515 548.056 216.931C551.216 223.526 565.82 229.503 572.201 233.022C577.644 235.999 583 239.135 588.261 242.424ZM531.286 401.134C538.157 388.396 537.14 377.032 532.185 363.884C536.538 364.216 548.226 366.825 552.491 368.68C562.524 373.042 574.842 367.175 566.72 356.915C560.313 348.821 538.75 346.26 528.259 347.166C516.428 348.714 505.338 352.859 497.205 362.71C484.084 378.604 492.153 414.553 516.889 411.663C522.456 411.012 528.155 405.905 531.286 401.134ZM559.875 451.443C573.871 451.34 594.791 449.952 608.091 453.321C621.953 456.831 629.592 447.54 622.54 442.596C617.421 439.008 585.113 438.952 576.27 439.23C562.466 439.41 548.664 439.707 534.866 440.121C528.053 440.315 520.716 439.963 514.003 441.128C512.551 441.38 511.25 441.766 510.184 442.84C509.036 443.998 508.321 445.764 508.593 447.407C508.84 448.892 509.937 450.142 511.238 450.825C516.601 453.638 551.667 451.449 559.875 451.443ZM601.014 499.93C613.136 490.374 596.843 485.769 589.478 483.763C566.807 477.59 538.429 469.886 514.761 470.322C513.495 470.35 512.231 470.442 510.974 470.596C509.308 471.664 507.31 473.117 506.918 475.163C505.193 484.166 529.871 483.965 536.644 485.02C548.829 486.958 560.886 489.632 572.747 493.028C580.491 495.216 593.421 500.411 601.014 499.93Z"/><path fill="#ffffff" d="M304.984 258.044C375.001 254.92 434.286 309.161 437.386 379.178C440.486 449.196 386.227 508.464 316.208 511.541C246.222 514.616 186.988 460.387 183.889 390.402C180.791 320.417 235 261.165 304.984 258.044ZM318.225 485.6C374.143 481.37 416.001 432.541 411.636 376.633C407.27 320.725 358.34 278.985 302.443 283.485C246.736 287.971 205.169 336.697 209.52 392.415C213.871 448.132 262.497 489.816 318.225 485.6Z"/><path fill="#ffffff" d="M304.573 299.164C330.962 296.701 354.24 305.637 372.658 324.619C388.91 341.164 397.713 363.621 397.034 386.803C396.243 423.236 370.773 463.011 331.937 466.869C328.821 467.179 324.849 466.947 321.66 466.862C325.939 464.087 330.387 462.276 335.126 459.088C336.687 457.704 338.241 456.024 339.703 454.515C314.491 443.034 299.374 423.42 294.287 396.052C290.58 374.999 293.992 353.311 303.984 334.413C306.348 330.009 309.961 324.915 312.825 320.709C300.612 313.306 273.804 323.291 262.025 329.064C260.8 329.664 260.941 329.96 259.323 330.293C257.845 326.738 259.499 321.699 261.911 318.928C272.583 306.668 289.019 301.383 304.573 299.164ZM344.005 415.278C373.307 405.382 372.6 362.305 347.785 347.882C344.073 345.724 339.354 345.828 335.2 346.127C300.247 358.377 308.248 420.696 344.005 415.278Z"/><path fill="#ffffff" d="M234.006 348.389C235.951 348.426 236.937 348.468 238.678 349.166C239.698 349.576 241.187 351.512 241.047 351.95C238.812 358.912 235.69 367.345 234.153 374.244C230.824 389.188 234.741 412.899 240.362 427.013L240.694 427.833L240.301 428.552C227.039 415.045 222.882 387.345 225.241 369.295C226.229 361.737 227.688 353.351 234.006 348.389Z"/><path fill="#ffffff" d="M850.454 324.147C868.978 322.395 885.11 327.742 887.452 348.749C890.154 372.981 865.881 385.95 855.593 404.859C832.327 447.622 855.763 496.176 874.397 535.845C898.108 586.195 913.106 636.767 908.141 692.966C902.847 752.904 878.842 799.563 832.731 838.101C826.621 843.294 818.437 849.358 811.494 853.095C824.24 816.331 829.986 780.804 830.374 742.396C830.395 740.308 834.3 730.474 835.093 727.563C850.101 672.078 834.264 606.358 809.163 555.397C779.17 494.502 754.799 425.408 796.153 362.102C808.725 342.857 827.181 328.556 850.454 324.147Z"/><path fill="#ffffff" d="M194.123 539.664C196.555 539.344 200.453 539.442 202.782 539.925C205.955 540.596 208.985 541.823 211.73 543.549C216.976 546.789 233.853 561.432 236.993 566.517C240.088 571.517 240.962 577.581 239.406 583.252C234.039 603.034 218.125 589.3 206.218 583.647C186.645 574.354 176.382 586.27 197.965 596.486C210.523 602.43 223.31 610.536 218.927 626.381C217.6 631.084 214.38 635.024 210.037 637.263C199.693 642.721 185.364 632.275 173.819 628.553L173.012 628.298C172.24 628.17 171.46 628.092 170.678 628.064C168.136 627.991 164.055 630.883 164.852 633.81C166.077 638.101 171.531 641.298 175.349 643.341C181.889 646.842 191.887 654.206 185.356 662.544C174.651 675.782 157.04 666.336 146.417 658.766C118.034 638.542 133.21 592.895 151.062 570.787C160.768 558.767 177.622 541.777 194.123 539.664Z"/><path fill="#ffffff" d="M145.319 676.016C156.082 681.43 171.413 688.545 183.622 686.399C175.984 696.24 170.978 712.121 162.737 721.071C158.555 724.646 153.711 726.728 148.273 726.601C136.781 726.331 129.193 719.353 129.687 707.684C130.103 697.868 134.098 692.421 139.188 684.456C141.099 681.465 142.777 678.425 145.319 676.016Z"/><path fill="#ffffff" d="M258.877 565.634C277.277 574.179 281.563 624.64 249.006 625.625C248.128 625.542 247.254 625.421 246.386 625.261C241.839 624.377 232.725 620.754 236.037 614.464C237.938 610.536 241.884 606.965 243.907 603.242C250.287 591.498 256.454 578.765 258.877 565.634Z"/><path fill="#ffffff" d="M240.76 506.141C243.459 507.26 249.811 511.352 252.783 512.901C258.889 516.081 264.764 518.909 271.124 521.588C268.172 528.588 258.145 544.233 253.958 552.143L252.886 553.679C250.394 553.42 228.855 536.982 224.955 534.267C229.801 524.857 235.485 515.373 240.76 506.141Z"/></svg>
